X:3478
T:Lady from Oceanside
O:england
M:4/4
L:1/8
C:James Kelly (written for Barbara Magone)
S:from The Ring Sessions
R:Reel
K:D
D2dB AFED|B,E~E2 {G}EDB,D|A,DdB AFED|1 B,DA,B, DFEC:|2 B,DA,B, DEFA|
|d2fd cdBd|(3cBA eA fAeA|d2fd cdBd|(3cBA BG FABc|defd cdBd|(3cBA eg
fdec|
dfed cdBc|ABAG FGEF||
